icons/fill-new-office-doc-order-exchange.svg

<svg xmlns="http://www.w3.org/2000/svg" width="32px" height="32px" viewBox="0 0 32 32" version="1.1">
    <title>fill-new-office-doc-order-exchange</title>
    <g id="fill-new-office-doc-order-exchange" stroke-width="1" fill-rule="evenodd">
        <path d="M9,4 L9,7 C9,7.55228475 9.44771525,8 10,8 L22,8 C22.5522847,8 23,7.55228475 23,7 L23,4 L27,4 C27.5522847,4 28,4.44771525 28,5 L28,29 C28,29.5522847 27.5522847,30 27,30 L5,30 C4.44771525,30 4,29.5522847 4,29 L4,5 C4,4.44771525 4.44771525,4 5,4 L9,4 Z M20.5,19 L11,19 C10.4477153,19 10,19.4477153 10,20 L10.0067277,20.1166211 C10.0644928,20.6139598 10.4871642,21 11,21 L18.556,21 L17.1862665,22.9187618 C16.8652575,23.3681744 16.9693492,23.9927245 17.4187618,24.3137335 C17.8681744,24.6347425 18.4927245,24.5306508 18.8137335,24.0812382 L21.3137335,20.5812382 C21.7864967,19.9193697 21.3133726,19 20.5,19 Z M14.5812382,11.6862665 C14.1318256,11.3652575 13.5072755,11.4693492 13.1862665,11.9187618 L10.6862665,15.4187618 C10.2135033,16.0806303 10.6866274,17 11.5,17 L21,17 C21.5522847,17 22,16.5522847 22,16 L21.9932723,15.8833789 C21.9355072,15.3860402 21.5128358,15 21,15 L13.442,15 L14.8137335,13.0812382 C15.1347425,12.6318256 15.0306508,12.0072755 14.5812382,11.6862665 Z M20,2 C20.5522847,2 21,2.44771525 21,3 L21,5 C21,5.55228475 20.5522847,6 20,6 L12,6 C11.4477153,6 11,5.55228475 11,5 L11,3 C11,2.44771525 11.4477153,2 12,2 L20,2 Z" id="&#24418;&#29366;" />
    </g>
</svg>

<svg xmlns="http://www.w3.org/2000/svg" viewBox="0 0 32 32"><path fill="currentColor" d="M9 4v3a1 1 0 0 0 1 1h12a1 1 0 0 0 1-1V4h4a1 1 0 0 1 1 1v24a1 1 0 0 1-1 1H5a1 1 0 0 1-1-1V5a1 1 0 0 1 1-1zm11.5 15H11a1 1 0 0 0-1 1l.007.117A1 1 0 0 0 11 21h7.556l-1.37 1.919a1 1 0 1 0 1.628 1.162l2.5-3.5A1 1 0 0 0 20.5 19m-5.919-7.314a1 1 0 0 0-1.395.233l-2.5 3.5A1 1 0 0 0 11.5 17H21a1 1 0 0 0 1-1l-.007-.117A1 1 0 0 0 21 15h-7.558l1.372-1.919a1 1 0 0 0-.233-1.395M20 2a1 1 0 0 1 1 1v2a1 1 0 0 1-1 1h-8a1 1 0 0 1-1-1V3a1 1 0 0 1 1-1z"/></svg>
